svg/icon/xbc.svg

<svg height="32" viewBox="0 0 32 32" width="32" xmlns="http://www.w3.org/2000/svg" xmlns:xlink="http://www.w3.org/1999/xlink"><defs><linearGradient id="a" x1="50%" x2="50%" y1="0%" y2="100%"><stop offset="0" stop-color="#fff" stop-opacity=".5"/><stop offset="1" stop-opacity=".5"/></linearGradient><circle id="b" cx="16" cy="15" r="15"/><filter id="c" height="111.7%" width="111.7%" x="-5.8%" y="-4.2%"><feOffset dy=".5" in="SourceAlpha" result="shadowOffsetOuter1"/><feGaussianBlur in="shadowOffsetOuter1" result="shadowBlurOuter1" stdDeviation=".5"/><feComposite in="shadowBlurOuter1" in2="SourceAlpha" operator="out" result="shadowBlurOuter1"/><feColorMatrix in="shadowBlurOuter1" values="0 0 0 0 0   0 0 0 0 0   0 0 0 0 0  0 0 0 0.199473505 0"/></filter><path id="d" d="m26.5092934 16.9167326v2.25h-1.5v-2.25h-2.25v-1.5h2.25v-2.25h1.5v2.25h2.25v1.5zm-6.6564526-4.5182969c.1298826 1.3585789-.4254476 2.1740098-1.3136814 2.6368089 1.4620626.3592468 2.3782133 1.2484461 2.1974818 3.2412576-.2238507 2.4748606-2.0265474 3.1388088-4.6021718 3.2900236l-.0004778 2.6000426-1.5320102.0001642.0006616-2.5652631c-.396994.0003734-.8036385-.003042-1.2238344-.01193l.0000498 2.577137-1.530367-.0002551-.0006489-2.6046665c-.3583815-.0023335-.7234352-.0087691-1.0944486-.0092194l-1.99369777.0000755.30439658-1.872107s1.13325939.0180706 1.11365689.0003005c.4335514-.0007701.5483488-.3193836.5755821-.5192157l.0003844-4.1100535c.0561709-.000489.110801-.0001384.1618372-.0002105-.0632506-.0088671-.119112-.0106895-.161933-.0109273l-.0001373-2.9338615c-.0587466-.3180954-.2607124-.6867187-.88125907-.6869102.01880518-.0213178-1.11252795.0007509-1.11252795.0007509l-.0004026-1.67424087 2.11302132.00073723.0002005.00798571c.3176157-.00021471.6433476-.00651844.9750358-.01344874l.0005648-2.57461478 1.5311886.00004542-.0002255 2.52407465c.4090136-.00835128.8206969-.01649069 1.2234413-.01654523l-.0000928-2.50747326 1.5320102-.0001642.0000509 2.57535069c1.9775687.17727805 3.5439028.79969638 3.7183523 2.65635238zm-2.1433692 5.5693977c.0001255-2.0302295-3.2557004-1.7246817-4.294292-1.7249337l-.0003877 3.4510327c1.0382843-.0010091 4.2955301.2203875 4.2946797-1.726099zm-.7125236-4.8689352c-.0001931-1.8470866-2.7168893-1.565672-3.5817321-1.5656013l-.0000866 3.1299283c.8648428-.0000706 3.58134.2065809 3.5818187-1.564327z"/><filter id="e" height="120.6%" width="117.5%" x="-8.8%" y="-7.4%"><feOffset dy=".5" in="SourceAlpha" result="shadowOffsetOuter1"/><feGaussianBlur in="shadowOffsetOuter1" result="shadowBlurOuter1" stdDeviation=".5"/><feColorMatrix in="shadowBlurOuter1" values="0 0 0 0 0   0 0 0 0 0   0 0 0 0 0  0 0 0 0.204257246 0"/></filter></defs><g fill="none" fill-rule="evenodd"><use fill="#000" filter="url(#c)" xlink:href="#b"/><use fill="#f7931a" xlink:href="#b"/><use fill="url(#a)" xlink:href="#b"/><circle cx="16" cy="15" r="14.5" stroke="#000" stroke-opacity=".097"/><g fill-rule="nonzero" transform="matrix(.97029573 .2419219 -.2419219 .97029573 4.347443 -4.073078)"><use fill="#000" filter="url(#e)" xlink:href="#d"/><use fill="#fff" fill-rule="evenodd" xlink:href="#d"/></g></g></svg>

<svg xmlns="http://www.w3.org/2000/svg" xmlns:xlink="http://www.w3.org/1999/xlink" width="32" height="32" viewBox="0 0 32 32">
  <defs>
    <linearGradient id="xbc-c" x1="50%" x2="50%" y1="0%" y2="100%">
      <stop offset="0%" stop-color="#FFF" stop-opacity=".5"/>
      <stop offset="100%" stop-opacity=".5"/>
    </linearGradient>
    <circle id="xbc-b" cx="16" cy="15" r="15"/>
    <filter id="xbc-a" width="111.7%" height="111.7%" x="-5.8%" y="-4.2%" filterUnits="objectBoundingBox">
      <feOffset dy=".5" in="SourceAlpha" result="shadowOffsetOuter1"/>
      <feGaussianBlur in="shadowOffsetOuter1" result="shadowBlurOuter1" stdDeviation=".5"/>
      <feComposite in="shadowBlurOuter1" in2="SourceAlpha" operator="out" result="shadowBlurOuter1"/>
      <feColorMatrix in="shadowBlurOuter1" values="0 0 0 0 0   0 0 0 0 0   0 0 0 0 0  0 0 0 0.199473505 0"/>
    </filter>
    <path id="xbc-e" d="M26.5092934,16.9167326 L26.5092934,19.1667326 L25.0092934,19.1667326 L25.0092934,16.9167326 L22.7592934,16.9167326 L22.7592934,15.4167326 L25.0092934,15.4167326 L25.0092934,13.1667326 L26.5092934,13.1667326 L26.5092934,15.4167326 L28.7592934,15.4167326 L28.7592934,16.9167326 L26.5092934,16.9167326 Z M19.8528408,12.3984357 C19.9827234,13.7570146 19.4273932,14.5724455 18.5391594,15.0352446 C20.001222,15.3944914 20.9173727,16.2836907 20.7366412,18.2765022 C20.5127905,20.7513628 18.7100938,21.415311 16.1344694,21.5665258 L16.1339916,24.1665684 L14.6019814,24.1667326 L14.602643,21.6014695 C14.205649,21.6018429 13.7990045,21.5984275 13.3788086,21.5895395 L13.3788584,24.1666765 L11.8484914,24.1664214 L11.8478425,21.5617549 C11.489461,21.5594214 11.1244073,21.5529858 10.7533939,21.5525355 L8.75969613,21.552611 L9.06409271,19.680504 C9.06409271,19.680504 10.1973521,19.6985746 10.1777496,19.6808045 C10.611301,19.6800344 10.7260984,19.3614209 10.7533317,19.1615888 L10.7537161,15.0515353 C10.809887,15.0510463 10.8645171,15.0513969 10.9155533,15.0513248 C10.8523027,15.0424577 10.7964413,15.0406353 10.7536203,15.0403975 L10.753483,12.106536 C10.6947364,11.7884406 10.4927706,11.4198173 9.87222393,11.4196258 C9.89102911,11.398308 8.75969598,11.4203767 8.75969598,11.4203767 L8.75929338,9.74613583 L10.8723147,9.74687306 L10.8725152,9.75485877 C11.1901309,9.75464406 11.5158628,9.74834033 11.847551,9.74141003 L11.8481158,7.16679525 L13.3793044,7.16684067 L13.3790789,9.69091532 C13.7880925,9.68256404 14.1997758,9.67442463 14.6025202,9.67437009 L14.6024274,7.16689683 L16.1344376,7.16673263 L16.1344885,9.74208332 C18.1120572,9.91936137 19.6783913,10.5417797 19.8528408,12.3984357 Z M17.7094716,17.9678334 C17.7095971,15.9376039 14.4537712,16.2431517 13.4151796,16.2428997 L13.4147919,19.6939324 C14.4530762,19.6929233 17.710322,19.9143199 17.7094716,17.9678334 Z M16.996948,13.0988982 C16.9967549,11.2518116 14.2800587,11.5332262 13.4152159,11.5332969 L13.4151293,14.6632252 C14.2799721,14.6631546 16.9964693,14.8698061 16.996948,13.0988982 Z"/>
    <filter id="xbc-d" width="117.5%" height="120.6%" x="-8.8%" y="-7.4%" filterUnits="objectBoundingBox">
      <feOffset dy=".5" in="SourceAlpha" result="shadowOffsetOuter1"/>
      <feGaussianBlur in="shadowOffsetOuter1" result="shadowBlurOuter1" stdDeviation=".5"/>
      <feColorMatrix in="shadowBlurOuter1" values="0 0 0 0 0   0 0 0 0 0   0 0 0 0 0  0 0 0 0.204257246 0"/>
    </filter>
  </defs>
  <g fill="none" fill-rule="evenodd">
    <use fill="#000" filter="url(#xbc-a)" xlink:href="#xbc-b"/>
    <use fill="#F7931A" xlink:href="#xbc-b"/>
    <use fill="url(#xbc-c)" style="mix-blend-mode:soft-light" xlink:href="#xbc-b"/>
    <circle cx="16" cy="15" r="14.5" stroke="#000" stroke-opacity=".097"/>
    <g fill-rule="nonzero" transform="rotate(14 18.76 15.667)">
      <use fill="#000" filter="url(#xbc-d)" xlink:href="#xbc-e"/>
      <use fill="#FFF" fill-rule="evenodd" xlink:href="#xbc-e"/>
    </g>
  </g>
</svg>
